X:173
T:Steirer
C:traditionell
R:Steirer
A:Bad Aussee, Salzkammergut
B:"Pfeifermusik aus Bad Ischl", Lois Blamberger, 3. Auflage, Bad Ischl 1990
S:im buch mit der Angabe: aus der Sammlung vom Blamberger Lois
N:im buch in G, nr. 8/1
Z:abc transcription Simon Wascher
M:3/4
L:1/8
K:G
V:1
P:1
b2 |\
(c'd) c'3 c' | (bd) b3 b | (ad) (adef) | (gd) (Bdgb) |\
(c'd) c'3 c' | (bd) b3 b | (ad) (adef) | g2 z2 :|
V:2
d'2 |\
(e'f) e'3 e' | (d'g) d'3 d' | (c'f) (c'bc'd') | (bg) (dgbd') |\
(e'f) e'3 e' | (d'g) d'3 d' | (c'f) (c'bc'd') | b2 z2 :|
